**harm	**harte	**silbe	**silbe	**rhyme	**timestamp	**phrase	**leadinstrument	**kern
*M4/4	*M4/4	*	*	*	*	*	*	*
*	*	*	*	*	*	*	*	*
*	*	*	*	*	*	*	*	*
*E-:	*E-:	*	*	*	*	*	*	*E-:
*	*	*	*	*	*	*	*	*
*	*	*	*	*	*	*	*	*
1r;	N	.	.	.	0	.	r	1r;
1r;	N	.	.	.	0.093	.	r	1r;
=1	=1	=1	=1	=1	=1	=1	=1	=1
*>Letter>A	*>Letter>A	*>Letter>A	*>Letter>A	*>Letter>A	*>Letter>A	*>Letter>A	*>Letter>A	*>Letter>A
*>Label>Intro	*>Label>Intro	*>Label>Intro	*>Label>Intro	*>Label>Intro	*>Label>Intro	*>Label>Intro	*>Label>Intro	*>Label>Intro
1IVm7	A-:13	.	.	.	12.509	newline	brass	1A- 1cc 1ee- 1gg
.	.	.	.	.	.	.	.	.
.	.	Get	.	.	.	.	.	.
.	.	up	.	.	.	.	.	.
=2	=2	=2	=2	=2	=2	=2	=2	=2
*>Letter>B	*>Letter>B	*>Letter>B	*>Letter>B	*>Letter>B	*>Letter>B	*>Letter>B	*>Letter>B	*>Letter>B
*>Label>Verse	*>Label>Verse	*>Label>Verse	*>Label>Verse	*>Label>Verse	*>Label>Verse	*>Label>Verse	*>Label>Verse	*>Label>Verse
1Im7	E-:13	_	.	.	14.795	newline	voice	1E- 1g 1b- 1dd
.	.	ah	.	.	.	.	.	.
.	.	.	.	.	.	.	.	.
.	.	.	Get	.	.	.	.	.
.	.	.	on	.	.	.	.	.
.	.	.	up	.	.	.	.	.
.	.	.	.	.	.	.	.	.
.	.	Get	.	.	.	.	.	.
.	.	up	.	.	.	.	.	.
=3	=3	=3	=3	=3	=3	=3	=3	=3
1Im7	E-:13	_	.	.	17.04	.	voice	1E- 1g 1b- 1dd
.	.	ah	.	.	.	.	.	.
.	.	.	.	.	.	.	.	.
.	.	.	Get	.	.	.	.	.
.	.	.	on	.	.	.	.	.
.	.	.	up	.	.	.	.	.
.	.	.	.	.	.	.	.	.
.	.	Stay	.	.	.	.	.	.
.	.	on	.	.	.	.	.	.
.	.	the	.	.	.	.	.	.
=4	=4	=4	=4	=4	=4	=4	=4	=4
1Im7	E-:13	scene	.	A	19.285	newline	voice	1E- 1g 1b- 1dd
.	.	uh	.	.	.	.	.	.
.	.	.	.	.	.	.	.	.
.	.	.	Get	.	.	.	.	.
.	.	.	on	.	.	.	.	.
.	.	.	up	.	.	.	.	.
.	.	.	.	.	.	.	.	.
.	.	Uh	.	.	.	.	.	.
.	.	like	.	.	.	.	.	.
.	.	a	.	.	.	.	.	.
.	.	sex	.	.	.	.	.	.
.	.	ma-	.	.	.	.	.	.
.	.	-chine	.	A	.	.	.	.
=5	=5	=5	=5	=5	=5	=5	=5	=5
1Im7	E-:13	_	.	.	21.476	.	voice	1E- 1g 1b- 1dd
.	.	uh	.	.	.	.	.	.
.	.	.	.	.	.	.	.	.
.	.	.	Get	.	.	.	.	.
.	.	.	on	.	.	.	.	.
.	.	.	up	.	.	.	.	.
.	.	.	.	.	.	.	.	.
.	.	.	.	.	.	.	.	.
.	.	Get	.	.	.	.	.	.
.	.	up	.	.	.	.	.	.
=6	=6	=6	=6	=6	=6	=6	=6	=6
1Im7	E-:13	_	.	.	23.667	newline	voice	1E- 1g 1b- 1dd
.	.	ah	.	.	.	.	.	.
.	.	.	.	.	.	.	.	.
.	.	.	Get	.	.	.	.	.
.	.	.	on	.	.	.	.	.
.	.	.	up	.	.	.	.	.
.	.	.	.	.	.	.	.	.
.	.	Get	.	.	.	.	.	.
.	.	up	.	.	.	.	.	.
=7	=7	=7	=7	=7	=7	=7	=7	=7
1Im7	E-:13	_	.	.	25.875	.	voice	1E- 1g 1b- 1dd
.	.	ah	.	.	.	.	.	.
.	.	.	.	.	.	.	.	.
.	.	.	Get	.	.	.	.	.
.	.	.	on	.	.	.	.	.
.	.	.	up	.	.	.	.	.
.	.	.	.	.	.	.	.	.
.	.	Stay	.	.	.	.	.	.
.	.	on	.	.	.	.	.	.
.	.	the	.	.	.	.	.	.
=8	=8	=8	=8	=8	=8	=8	=8	=8
1Im7	E-:13	scene	.	A	28.083	newline	voice	1E- 1g 1b- 1dd
.	.	uh	.	.	.	.	.	.
.	.	.	.	.	.	.	.	.
.	.	.	Get	.	.	.	.	.
.	.	.	on	.	.	.	.	.
.	.	.	up	.	.	.	.	.
.	.	.	.	.	.	.	.	.
.	.	Uh	.	.	.	.	.	.
.	.	like	.	.	.	.	.	.
.	.	a	.	.	.	.	.	.
.	.	sex	.	.	.	.	.	.
.	.	ma-	.	.	.	.	.	.
.	.	-chine	.	A	.	.	.	.
=9	=9	=9	=9	=9	=9	=9	=9	=9
1Im7	E-:13	_	.	.	30.292	.	voice	1E- 1g 1b- 1dd
.	.	uh	.	.	.	.	.	.
.	.	.	.	.	.	.	.	.
.	.	.	Get	.	.	.	.	.
.	.	.	on	.	.	.	.	.
.	.	.	up	.	.	.	.	.
.	.	.	.	.	.	.	.	.
.	.	Get	.	.	.	.	.	.
.	.	up	.	.	.	.	.	.
=10	=10	=10	=10	=10	=10	=10	=10	=10
1Im7	E-:13	_	.	.	32.501	newline	voice	1E- 1g 1b- 1dd
.	.	ah	.	.	.	.	.	.
.	.	.	.	.	.	.	.	.
.	.	.	Get	.	.	.	.	.
.	.	.	on	.	.	.	.	.
.	.	.	up	.	.	.	.	.
.	.	.	.	.	.	.	.	.
.	.	Stay	.	.	.	.	.	.
.	.	on	.	.	.	.	.	.
.	.	the	.	.	.	.	.	.
=11	=11	=11	=11	=11	=11	=11	=11	=11
1Im7	E-:13	scene	.	A	34.72	.	voice	1E- 1g 1b- 1dd
.	.	uh	.	.	.	.	.	.
.	.	.	.	.	.	.	.	.
.	.	.	Get	.	.	.	.	.
.	.	.	on	.	.	.	.	.
.	.	.	up	.	.	.	.	.
.	.	.	.	.	.	.	.	.
.	.	Uh	.	.	.	.	.	.
.	.	like	.	.	.	.	.	.
.	.	a	.	.	.	.	.	.
.	.	sex	.	.	.	.	.	.
.	.	ma-	.	.	.	.	.	.
.	.	-chine	.	A	.	.	.	.
=12	=12	=12	=12	=12	=12	=12	=12	=12
1Im7	E-:13	_	.	.	36.939	newline	voice	1E- 1g 1b- 1dd
.	.	uh	.	.	.	.	.	.
.	.	.	.	.	.	.	.	.
.	.	.	Get	.	.	.	.	.
.	.	.	on	.	.	.	.	.
.	.	.	up	.	.	.	.	.
.	.	.	.	.	.	.	.	.
.	.	Uh	.	.	.	.	.	.
.	.	wait	.	.	.	.	.	.
.	.	a	.	.	.	.	.	.
.	.	mi-	.	.	.	.	.	.
.	.	-nute	.	.	.	.	.	.
=13	=13	=13	=13	=13	=13	=13	=13	=13
1Im7	E-:13	.	.	.	39.163	.	voice	1E- 1g 1b- 1dd
.	.	Shake	.	.	.	.	.	.
.	.	your	.	.	.	.	.	.
.	.	_	.	.	.	.	.	.
.	.	arm	.	B	.	.	.	.
.	.	_	.	.	.	.	.	.
.	.	.	.	.	.	.	.	.
.	.	.	.	.	.	.	.	.
.	.	then	.	.	.	.	.	.
.	.	use	.	.	.	.	.	.
=14	=14	=14	=14	=14	=14	=14	=14	=14
1Im7	E-:13	_	.	.	41.387	newline	voice	1E- 1g 1b- 1dd
.	.	your	.	.	.	.	.	.
.	.	form	.	B	.	.	.	.
.	.	_	.	.	.	.	.	.
.	.	.	.	.	.	.	.	.
.	.	.	.	.	.	.	.	.
=15	=15	=15	=15	=15	=15	=15	=15	=15
1Im7	E-:13	Stay	.	.	43.588	.	voice	1E- 1g 1b- 1dd
.	.	on	.	.	.	.	.	.
.	.	the	.	.	.	.	.	.
.	.	scene	.	A	.	.	.	.
.	.	uh	.	.	.	.	.	.
.	.	.	.	.	.	.	.	.
.	.	.	.	.	.	.	.	.
.	.	Uh	.	.	.	.	.	.
.	.	like	.	.	.	.	.	.
.	.	a	.	.	.	.	.	.
=16	=16	=16	=16	=16	=16	=16	=16	=16
1Im7	E-:13	sex	.	.	45.79	newline	voice	1E- 1g 1b- 1dd
.	.	ma-	.	.	.	.	.	.
.	.	-chine	.	A	.	.	.	.
.	.	_	.	.	.	.	.	.
.	.	uh	.	.	.	.	.	.
.	.	.	.	.	.	.	.	.
.	.	.	.	.	.	.	.	.
.	.	.	.	.	.	.	.	.
.	.	Ya	.	.	.	.	.	.
=17	=17	=17	=17	=17	=17	=17	=17	=17
1Im7	E-:13	got-	.	.	47.995	.	voice	1E- 1g 1b- 1dd
.	.	-ta	.	.	.	.	.	.
.	.	have	.	.	.	.	.	.
.	.	the	.	.	.	.	.	.
.	.	fee-	.	.	.	.	.	.
.	.	-lin'	.	.	.	.	.	.
.	.	.	.	.	.	.	.	.
=18	=18	=18	=18	=18	=18	=18	=18	=18
1Im7	E-:13	Sure	.	.	50.2	newline	voice	1E- 1g 1b- 1dd
.	.	as	.	.	.	.	.	.
.	.	you're	.	.	.	.	.	.
.	.	born	.	C	.	.	.	.
.	.	_	.	.	.	.	.	.
.	.	.	.	.	.	.	.	.
.	.	.	.	.	.	.	.	.
.	.	.	.	.	.	.	.	.
.	.	and	.	.	.	.	.	.
=19	=19	=19	=19	=19	=19	=19	=19	=19
1Im7	E-:13	get	.	.	52.423	.	voice	1E- 1g 1b- 1dd
.	.	it	.	.	.	.	.	.
.	.	to-	.	.	.	.	.	.
.	.	-ge-	.	.	.	.	.	.
.	.	_	.	.	.	.	.	.
.	.	-ther	.	.	.	.	.	.
.	.	.	.	.	.	.	.	.
.	.	.	.	.	.	.	.	.
.	.	.	.	.	.	.	.	.
.	.	Right	.	.	.	.	.	.
.	.	on	.	C	.	.	.	.
=20	=20	=20	=20	=20	=20	=20	=20	=20
1Im7	E-:13	_	.	.	54.646	newline	voice	1E- 1g 1b- 1dd
.	.	Right	.	.	.	.	.	.
.	.	on	.	.	.	.	.	.
.	.	_	.	.	.	.	.	.
.	.	.	.	.	.	.	.	.
.	.	.	.	.	.	.	.	.
.	.	.	.	.	.	.	.	.
.	.	Get	.	.	.	.	.	.
.	.	up	.	.	.	.	.	.
=21	=21	=21	=21	=21	=21	=21	=21	=21
1Im7	E-:13	_	.	.	56.847	.	voice	1E- 1g 1b- 1dd
.	.	ah	.	.	.	.	.	.
.	.	.	.	.	.	.	.	.
.	.	.	Get	.	.	.	.	.
.	.	.	on	.	.	.	.	.
.	.	.	up	.	.	.	.	.
.	.	.	.	.	.	.	.	.
.	.	.	.	.	.	.	.	.
.	.	Get	.	.	.	.	.	.
.	.	up	.	.	.	.	.	.
=22	=22	=22	=22	=22	=22	=22	=22	=22
1Im7	E-:13	_	.	.	59.049	newline	voice	1E- 1g 1b- 1dd
.	.	ah	.	.	.	.	.	.
.	.	.	.	.	.	.	.	.
.	.	.	Get	.	.	.	.	.
.	.	.	on	.	.	.	.	.
.	.	.	up	.	.	.	.	.
.	.	.	.	.	.	.	.	.
.	.	Get	.	.	.	.	.	.
.	.	up	.	.	.	.	.	.
=23	=23	=23	=23	=23	=23	=23	=23	=23
1Im7	E-:13	_	.	.	61.261	.	voice	1E- 1g 1b- 1dd
.	.	ah	.	.	.	.	.	.
.	.	.	.	.	.	.	.	.
.	.	.	Get	.	.	.	.	.
.	.	.	on	.	.	.	.	.
.	.	.	up	.	.	.	.	.
.	.	.	.	.	.	.	.	.
=24	=24	=24	=24	=24	=24	=24	=24	=24
1Im7	E-:13	.	.	.	63.474	newline	piano	1E- 1g 1b- 1dd
=25	=25	=25	=25	=25	=25	=25	=25	=25
1Im7	E-:13	.	.	.	65.735	.	piano	1E- 1g 1b- 1dd
=26	=26	=26	=26	=26	=26	=26	=26	=26
1Im7	E-:13	.	.	.	67.996	newline	piano	1E- 1g 1b- 1dd
.	.	.	.	.	.	.	.	.
.	.	Huh!	.	.	.	.	.	.
=27	=27	=27	=27	=27	=27	=27	=27	=27
1Im7	E-:13	.	.	.	70.238	.	piano	1E- 1g 1b- 1dd
=28	=28	=28	=28	=28	=28	=28	=28	=28
1Im7	E-:13	.	.	.	72.481	newline	piano	1E- 1g 1b- 1dd
=29	=29	=29	=29	=29	=29	=29	=29	=29
1Im7	E-:13	.	.	.	74.693	.	piano	1E- 1g 1b- 1dd
=30	=30	=30	=30	=30	=30	=30	=30	=30
1Im7	E-:13	.	.	.	76.905	newline	piano	1E- 1g 1b- 1dd
=31	=31	=31	=31	=31	=31	=31	=31	=31
1Im7	E-:13	.	.	.	79.167	.	piano	1E- 1g 1b- 1dd
.	.	.	.	.	.	.	.	.
.	.	Get	.	.	.	.	.	.
.	.	up	.	.	.	.	.	.
=32	=32	=32	=32	=32	=32	=32	=32	=32
1Im7	E-:13	_	.	.	81.429	newline	voice	1E- 1g 1b- 1dd
.	.	ah	.	.	.	.	.	.
.	.	.	.	.	.	.	.	.
.	.	.	Get	.	.	.	.	.
.	.	.	on	.	.	.	.	.
.	.	.	up	.	.	.	.	.
.	.	.	.	.	.	.	.	.
.	.	.	.	.	.	.	.	.
.	.	Get	.	.	.	.	.	.
.	.	up	.	.	.	.	.	.
=33	=33	=33	=33	=33	=33	=33	=33	=33
1Im7	E-:13	_	.	.	83.667	.	voice	1E- 1g 1b- 1dd
.	.	ah	.	.	.	.	.	.
.	.	.	.	.	.	.	.	.
.	.	.	Get	.	.	.	.	.
.	.	.	on	.	.	.	.	.
.	.	.	up	.	.	.	.	.
.	.	.	.	.	.	.	.	.
.	.	.	.	.	.	.	.	.
.	.	Get	.	.	.	.	.	.
.	.	up	.	.	.	.	.	.
=34	=34	=34	=34	=34	=34	=34	=34	=34
1Im7	E-:13	_	.	.	85.906	newline	voice	1E- 1g 1b- 1dd
.	.	.	.	.	.	.	.	.
.	.	ah	.	.	.	.	.	.
.	.	.	Get	.	.	.	.	.
.	.	.	on	.	.	.	.	.
.	.	.	up	.	.	.	.	.
.	.	.	.	.	.	.	.	.
.	.	Get	.	.	.	.	.	.
.	.	up	.	.	.	.	.	.
=35	=35	=35	=35	=35	=35	=35	=35	=35
1Im7	E-:13	_	.	.	88.133	.	voice	1E- 1g 1b- 1dd
.	.	ah	.	.	.	.	.	.
.	.	.	.	.	.	.	.	.
.	.	.	Get	.	.	.	.	.
.	.	.	on	.	.	.	.	.
.	.	.	up	.	.	.	.	.
.	.	.	.	.	.	.	.	.
.	.	You	.	.	.	.	.	.
.	.	said	.	.	.	.	.	.
=36	=36	=36	=36	=36	=36	=36	=36	=36
1Im7	E-:13	_	.	.	90.36	newline	voice	1E- 1g 1b- 1dd
.	.	uh	.	.	.	.	.	.
.	.	.	.	.	.	.	.	.
.	.	.	.	.	.	.	.	.
.	.	.	.	.	.	.	.	.
.	.	I	.	.	.	.	.	.
.	.	said	.	.	.	.	.	.
.	.	you	.	.	.	.	.	.
.	.	got-	.	.	.	.	.	.
.	.	-ta	.	.	.	.	.	.
=37	=37	=37	=37	=37	=37	=37	=37	=37
1Im7	E-:13	.	.	.	92.595	.	voice	1E- 1g 1b- 1dd
.	.	.	.	.	.	.	.	.
.	.	.	.	.	.	.	.	.
.	.	Uh	.	.	.	.	.	.
.	.	said	.	.	.	.	.	.
.	.	the	.	.	.	.	.	.
=38	=38	=38	=38	=38	=38	=38	=38	=38
1Im7	E-:13	fee-	.	.	94.83	newline	voice	1E- 1g 1b- 1dd
.	.	-lin'	.	.	.	.	.	.
.	.	.	.	.	.	.	.	.
.	.	.	.	.	.	.	.	.
.	.	.	.	.	.	.	.	.
.	.	You	.	.	.	.	.	.
.	.	got-	.	.	.	.	.	.
.	.	-ta	.	.	.	.	.	.
.	.	get	.	D	.	.	.	.
=39	=39	=39	=39	=39	=39	=39	=39	=39
1Im7	E-:13	_	.	.	97.047	.	voice	1E- 1g 1b- 1dd
.	.	ah	.	.	.	.	.	.
.	.	.	.	.	.	.	.	.
.	.	.	.	.	.	.	.	.
.	.	.	.	.	.	.	.	.
.	.	.	.	.	.	.	.	.
.	.	Ya	.	.	.	.	.	.
.	.	give	.	.	.	.	.	.
.	.	me	.	.	.	.	.	.
=40	=40	=40	=40	=40	=40	=40	=40	=40
1Im7	E-:13	fe-	.	.	99.264	newline	voice	1E- 1g 1b- 1dd
.	.	-ver	.	.	.	.	.	.
.	.	.	.	.	.	.	.	.
.	.	.	.	.	.	.	.	.
.	.	.	.	.	.	.	.	.
.	.	and	.	.	.	.	.	.
.	.	a	.	.	.	.	.	.
=41	=41	=41	=41	=41	=41	=41	=41	=41
1Im7	E-:13	cold	.	.	101.483	.	voice	1E- 1g 1b- 1dd
.	.	_	.	.	.	.	.	.
.	.	sweat	.	D	.	.	.	.
.	.	_	.	.	.	.	.	.
.	.	.	.	.	.	.	.	.
.	.	.	.	.	.	.	.	.
.	.	.	.	.	.	.	.	.
.	.	.	.	.	.	.	.	.
.	.	The	.	.	.	.	.	.
=42	=42	=42	=42	=42	=42	=42	=42	=42
1Im7	E-:13	way	.	.	103.702	newline	voice	1E- 1g 1b- 1dd
.	.	I	.	.	.	.	.	.
.	.	like	.	.	.	.	.	.
.	.	_	.	.	.	.	.	.
.	.	it	.	.	.	.	.	.
.	.	.	.	.	.	.	.	.
.	.	.	.	.	.	.	.	.
.	.	There's	.	.	.	.	.	.
.	.	the	.	.	.	.	.	.
=43	=43	=43	=43	=43	=43	=43	=43	=43
1Im7	E-:13	way	.	.	105.899	.	voice	1E- 1g 1b- 1dd
.	.	it	.	.	.	.	.	.
.	.	.	.	.	.	.	.	.
.	.	is	.	E	.	.	.	.
.	.	_	.	.	.	.	.	.
.	.	_	.	.	.	.	.	.
.	.	.	.	.	.	.	.	.
.	.	.	.	.	.	.	.	.
.	.	.	.	.	.	.	.	.
.	.	I've	.	.	.	.	.	.
=44	=44	=44	=44	=44	=44	=44	=44	=44
1Im7	E-:13	_	.	.	108.096	newline	voice	1E- 1g 1b- 1dd
.	.	got	.	.	.	.	.	.
.	.	mine	.	.	.	.	.	.
.	.	_	.	.	.	.	.	.
.	.	uh	.	.	.	.	.	.
.	.	.	.	.	.	.	.	.
.	.	.	.	.	.	.	.	.
.	.	don't	.	.	.	.	.	.
.	.	wor-	.	.	.	.	.	.
=45	=45	=45	=45	=45	=45	=45	=45	=45
1Im7	E-:13	_	.	.	110.323	.	voice	1E- 1g 1b- 1dd
.	.	-ry	.	.	.	.	.	.
.	.	'bout	.	.	.	.	.	.
.	.	his	.	E	.	.	.	.
.	.	_	.	.	.	.	.	.
.	.	uh	.	.	.	.	.	.
.	.	.	.	.	.	.	.	.
.	.	.	.	.	.	.	.	.
.	.	Get	.	.	.	.	.	.
.	.	up	.	.	.	.	.	.
=46	=46	=46	=46	=46	=46	=46	=46	=46
1Im7	E-:13	_	.	.	112.551	newline	voice	1E- 1g 1b- 1dd
.	.	ah	.	.	.	.	.	.
.	.	.	.	.	.	.	.	.
.	.	.	Get	.	.	.	.	.
.	.	.	on	.	.	.	.	.
.	.	.	up	.	.	.	.	.
.	.	.	.	.	.	.	.	.
.	.	Stay	.	.	.	.	.	.
.	.	on	.	.	.	.	.	.
.	.	the	.	.	.	.	.	.
=47	=47	=47	=47	=47	=47	=47	=47	=47
1Im7	E-:13	scene	.	A	114.74	.	voice	1E- 1g 1b- 1dd
.	.	uh	.	.	.	.	.	.
.	.	.	.	.	.	.	.	.
.	.	.	Get	.	.	.	.	.
.	.	.	on	.	.	.	.	.
.	.	.	up	.	.	.	.	.
.	.	.	.	.	.	.	.	.
.	.	like	.	.	.	.	.	.
.	.	a	.	.	.	.	.	.
.	.	sex	.	.	.	.	.	.
.	.	ma-	.	.	.	.	.	.
.	.	-chine	.	A	.	.	.	.
=48	=48	=48	=48	=48	=48	=48	=48	=48
1Im7	E-:13	_	.	.	116.93	newline	voice	1E- 1g 1b- 1dd
.	.	uh	.	.	.	.	.	.
.	.	.	.	.	.	.	.	.
.	.	.	Get	.	.	.	.	.
.	.	.	on	.	.	.	.	.
.	.	.	up	.	.	.	.	.
.	.	.	.	.	.	.	.	.
.	.	Get	.	.	.	.	.	.
.	.	up	.	.	.	.	.	.
=49	=49	=49	=49	=49	=49	=49	=49	=49
1Im7	E-:13	_	.	.	119.166	.	voice	1E- 1g 1b- 1dd
.	.	ah	.	.	.	.	.	.
.	.	.	.	.	.	.	.	.
.	.	.	Get	.	.	.	.	.
.	.	.	on	.	.	.	.	.
.	.	.	up	.	.	.	.	.
.	.	.	.	.	.	.	.	.
.	.	Get	.	.	.	.	.	.
.	.	up	.	.	.	.	.	.
=50	=50	=50	=50	=50	=50	=50	=50	=50
1Im7	E-:13	_	.	.	121.402	newline	voice	1E- 1g 1b- 1dd
.	.	ah	.	.	.	.	.	.
.	.	.	.	.	.	.	.	.
.	.	.	Get	.	.	.	.	.
.	.	.	on	.	.	.	.	.
.	.	.	up	.	.	.	.	.
.	.	.	.	.	.	.	.	.
=51	=51	=51	=51	=51	=51	=51	=51	=51
1Im7	E-:13	.	.	.	123.594	.	voice	1E- 1g 1b- 1dd
=52	=52	=52	=52	=52	=52	=52	=52	=52
1Im7	E-:13	.	.	.	125.786	newline	voice	1E- 1g 1b- 1dd
=53	=53	=53	=53	=53	=53	=53	=53	=53
1Im7	E-:13	.	.	.	128.022	.	voice	1E- 1g 1b- 1dd
=54	=54	=54	=54	=54	=54	=54	=54	=54
1Im7	E-:13	.	.	.	130.258	newline	voice	1E- 1g 1b- 1dd
.	.	.	.	.	.	.	.	.
.	.	Hit	.	.	.	.	.	.
.	.	me	.	.	.	.	.	.
.	.	now!	.	.	.	.	.	.
=55	=55	=55	=55	=55	=55	=55	=55	=55
*>Letter>C	*>Letter>C	*>Letter>C	*>Letter>C	*>Letter>C	*>Letter>C	*>Letter>C	*>Letter>C	*>Letter>C
*>Label>Bridge	*>Label>Bridge	*>Label>Bridge	*>Label>Bridge	*>Label>Bridge	*>Label>Bridge	*>Label>Bridge	*>Label>Bridge	*>Label>Bridge
1IVm7	A-:13	.	.	.	132.49	newline	voice	1A- 1cc 1ee- 1gg
.	.	.	.	.	.	.	.	.
.	.	Come	.	.	.	.	.	.
.	.	on	.	.	.	.	.	.
=56	=56	=56	=56	=56	=56	=56	=56	=56
1IVm7	A-:13	_	.	.	134.699	.	voice	1A- 1cc 1ee- 1gg
.	.	now	.	.	.	.	.	.
.	.	.	.	.	.	.	.	.
.	.	.	.	.	.	.	.	.
.	.	.	.	.	.	.	.	.
.	.	Stay	.	.	.	.	.	.
.	.	on	.	.	.	.	.	.
.	.	the	.	.	.	.	.	.
=57	=57	=57	=57	=57	=57	=57	=57	=57
1IVm7	A-:13	scene	.	A	136.908	newline	voice	1A- 1cc 1ee- 1gg
.	.	uh	.	.	.	.	.	.
.	.	.	.	.	.	.	.	.
.	.	.	.	.	.	.	.	.
.	.	.	.	.	.	.	.	.
.	.	Uh	.	.	.	.	.	.
.	.	like	.	.	.	.	.	.
.	.	a	.	.	.	.	.	.
.	.	sex	.	.	.	.	.	.
.	.	ma-	.	.	.	.	.	.
.	.	-chine	.	A	.	.	.	.
=58	=58	=58	=58	=58	=58	=58	=58	=58
1IVm7	A-:13	_	.	.	139.093	.	voice	1A- 1cc 1ee- 1gg
.	.	uh	.	.	.	.	.	.
.	.	.	.	.	.	.	.	.
.	.	.	.	.	.	.	.	.
.	.	.	.	.	.	.	.	.
.	.	The	.	.	.	.	.	.
.	.	way	.	.	.	.	.	.
.	.	I	.	.	.	.	.	.
.	.	like	.	.	.	.	.	.
=59	=59	=59	=59	=59	=59	=59	=59	=59
1IVm7	A-:13	_	.	.	141.279	newline	voice	1A- 1cc 1ee- 1gg
.	.	it	.	.	.	.	.	.
.	.	.	.	.	.	.	.	.
.	.	.	.	.	.	.	.	.
.	.	.	.	.	.	.	.	.
.	.	is	.	.	.	.	.	.
.	.	the	.	.	.	.	.	.
.	.	way	.	.	.	.	.	.
.	.	it	.	.	.	.	.	.
.	.	.	.	.	.	.	.	.
.	.	is	.	E	.	.	.	.
=60	=60	=60	=60	=60	=60	=60	=60	=60
1IVm7	A-:13	_	.	.	143.499	.	voice	1A- 1cc 1ee- 1gg
.	.	.	.	.	.	.	.	.
.	.	.	.	.	.	.	.	.
.	.	.	.	.	.	.	.	.
.	.	.	.	.	.	.	.	.
.	.	I	.	.	.	.	.	.
.	.	_	.	.	.	.	.	.
.	.	got	.	.	.	.	.	.
.	.	my	.	.	.	.	.	.
=61	=61	=61	=61	=61	=61	=61	=61	=61
1IVm7	A-:13	_	.	.	145.719	newline	voice	1A- 1cc 1ee- 1gg
.	.	.	.	.	.	.	.	.
.	.	Dig	.	.	.	.	.	.
.	.	it!	.	.	.	.	.	.
.	.	.	.	.	.	.	.	.
.	.	.	.	.	.	.	.	.
.	.	He	.	.	.	.	.	.
.	.	_	.	.	.	.	.	.
.	.	got	.	.	.	.	.	.
.	.	his	.	E	.	.	.	.
=62	=62	=62	=62	=62	=62	=62	=62	=62
1IVm7	A-:13	_	.	.	147.91	.	voice	1A- 1cc 1ee- 1gg
.	.	.	.	.	.	.	.	.
.	.	.	.	.	.	.	.	.
.	.	.	.	.	.	.	.	.
.	.	Stay	.	.	.	.	.	.
.	.	on	.	.	.	.	.	.
.	.	the	.	.	.	.	.	.
=63	=63	=63	=63	=63	=63	=63	=63	=63
1IVm7	A-:13	scene	.	A	150.101	newline	voice	1A- 1cc 1ee- 1gg
.	.	uh	.	.	.	.	.	.
.	.	.	.	.	.	.	.	.
.	.	.	.	.	.	.	.	.
.	.	.	.	.	.	.	.	.
.	.	uh	.	.	.	.	.	.
.	.	like	.	.	.	.	.	.
.	.	a	.	.	.	.	.	.
.	.	lov-	.	.	.	.	.	.
.	.	-in'	.	.	.	.	.	.
.	.	ma-	.	.	.	.	.	.
.	.	-chine	.	A	.	.	.	.
=64	=64	=64	=64	=64	=64	=64	=64	=64
1IVm7	A-:13	_	.	.	152.298	.	voice	1A- 1cc 1ee- 1gg
.	.	uh	.	.	.	.	.	.
.	.	.	.	.	.	.	.	.
.	.	.	.	.	.	.	.	.
.	.	.	.	.	.	.	.	.
.	.	Stay	.	.	.	.	.	.
.	.	on	.	.	.	.	.	.
.	.	the	.	.	.	.	.	.
=65	=65	=65	=65	=65	=65	=65	=65	=65
1IVm7	A-:13	scene	.	A	154.495	newline	voice	1A- 1cc 1ee- 1gg
.	.	uh	.	.	.	.	.	.
.	.	.	.	.	.	.	.	.
.	.	.	.	.	.	.	.	.
.	.	.	.	.	.	.	.	.
.	.	uh	.	.	.	.	.	.
.	.	like	.	.	.	.	.	.
.	.	a	.	.	.	.	.	.
.	.	lov-	.	.	.	.	.	.
.	.	-in'	.	.	.	.	.	.
.	.	ma-	.	.	.	.	.	.
.	.	-chine	.	A	.	.	.	.
=66	=66	=66	=66	=66	=66	=66	=66	=66
1IVm7	A-:13	_	.	.	156.672	.	voice	1A- 1cc 1ee- 1gg
.	.	.	.	.	.	.	.	.
.	.	.	.	.	.	.	.	.
.	.	.	.	.	.	.	.	.
.	.	Stay	.	.	.	.	.	.
.	.	on	.	.	.	.	.	.
.	.	the	.	.	.	.	.	.
=67	=67	=67	=67	=67	=67	=67	=67	=67
1IVm7	A-:13	scene	.	A	158.85	newline	voice	1A- 1cc 1ee- 1gg
.	.	uh	.	.	.	.	.	.
.	.	.	.	.	.	.	.	.
.	.	.	.	.	.	.	.	.
.	.	.	.	.	.	.	.	.
=68	=68	=68	=68	=68	=68	=68	=68	=68
1IVm7	A-:13	.	.	.	161.033	.	voice	1A- 1cc 1ee- 1gg
=69	=69	=69	=69	=69	=69	=69	=69	=69
1IVm7	A-:13	.	.	.	163.215	newline	voice	1A- 1cc 1ee- 1gg
=70	=70	=70	=70	=70	=70	=70	=70	=70
1IVm7	A-:13	.	.	.	165.405	.	voice	1A- 1cc 1ee- 1gg
.	.	.	.	.	.	.	.	.
.	.	Hit	.	.	.	.	.	.
.	.	it	.	.	.	.	.	.
.	.	now!	.	.	.	.	.	.
.	.	.	.	.	.	.	.	.
=71	=71	=71	=71	=71	=71	=71	=71	=71
*>Letter>D	*>Letter>D	*>Letter>D	*>Letter>D	*>Letter>D	*>Letter>D	*>Letter>D	*>Letter>D	*>Letter>D
*>Label>Trans	*>Label>Trans	*>Label>Trans	*>Label>Trans	*>Label>Trans	*>Label>Trans	*>Label>Trans	*>Label>Trans	*>Label>Trans
1IVm7	A-:13	.	.	.	167.595	newline	brass	1A- 1cc 1ee- 1gg
=72	=72	=72	=72	=72	=72	=72	=72	=72
*>Letter>B2	*>Letter>B2	*>Letter>B2	*>Letter>B2	*>Letter>B2	*>Letter>B2	*>Letter>B2	*>Letter>B2	*>Letter>B2
*>Label>Verse	*>Label>Verse	*>Label>Verse	*>Label>Verse	*>Label>Verse	*>Label>Verse	*>Label>Verse	*>Label>Verse	*>Label>Verse
1Im7	E-:13	Get	.	.	169.945	newline	voice	1E- 1g 1b- 1dd
.	.	on	.	.	.	.	.	.
.	.	up	.	.	.	.	.	.
.	.	.	.	.	.	.	.	.
.	.	.	Get	.	.	.	.	.
.	.	.	on	.	.	.	.	.
.	.	.	up	.	.	.	.	.
.	.	.	.	.	.	.	.	.
.	.	Get	.	.	.	.	.	.
.	.	up	.	.	.	.	.	.
=73	=73	=73	=73	=73	=73	=73	=73	=73
1Im7	E-:13	_	.	.	172.184	.	voice	1E- 1g 1b- 1dd
.	.	ah	.	.	.	.	.	.
.	.	.	.	.	.	.	.	.
.	.	.	Get	.	.	.	.	.
.	.	.	on	.	.	.	.	.
.	.	.	up	.	.	.	.	.
.	.	.	.	.	.	.	.	.
.	.	Get	.	.	.	.	.	.
.	.	up	.	.	.	.	.	.
=74	=74	=74	=74	=74	=74	=74	=74	=74
1Im7	E-:13	_	.	.	174.423	newline	voice	1E- 1g 1b- 1dd
.	.	ah	.	.	.	.	.	.
.	.	.	.	.	.	.	.	.
.	.	.	Get	.	.	.	.	.
.	.	.	on	.	.	.	.	.
.	.	.	up	.	.	.	.	.
.	.	.	.	.	.	.	.	.
.	.	Get	.	.	.	.	.	.
.	.	on	.	.	.	.	.	.
.	.	up	.	.	.	.	.	.
=75	=75	=75	=75	=75	=75	=75	=75	=75
1Im7	E-:13	.	.	.	176.632	.	voice	1E- 1g 1b- 1dd
.	.	.	Get	.	.	.	.	.
.	.	.	on	.	.	.	.	.
.	.	.	up	.	.	.	.	.
.	.	.	.	.	.	.	.	.
.	.	Stay	.	.	.	.	.	.
.	.	on	.	.	.	.	.	.
.	.	the	.	.	.	.	.	.
=76	=76	=76	=76	=76	=76	=76	=76	=76
1Im7	E-:13	scene	.	A	178.841	newline	voice	1E- 1g 1b- 1dd
.	.	uh	.	.	.	.	.	.
.	.	.	.	.	.	.	.	.
.	.	.	Get	.	.	.	.	.
.	.	.	on	.	.	.	.	.
.	.	.	up	.	.	.	.	.
.	.	.	.	.	.	.	.	.
.	.	uh	.	.	.	.	.	.
.	.	like	.	.	.	.	.	.
.	.	a	.	.	.	.	.	.
.	.	lov-	.	.	.	.	.	.
.	.	-in'	.	.	.	.	.	.
.	.	ma-	.	.	.	.	.	.
.	.	-chine	.	A	.	.	.	.
=77	=77	=77	=77	=77	=77	=77	=77	=77
1Im7	E-:13	_	.	.	181.034	.	voice	1E- 1g 1b- 1dd
.	.	uh	.	.	.	.	.	.
.	.	.	.	.	.	.	.	.
.	.	.	Get	.	.	.	.	.
.	.	.	on	.	.	.	.	.
.	.	.	up	.	.	.	.	.
.	.	.	.	.	.	.	.	.
.	.	Get	.	.	.	.	.	.
.	.	up	.	.	.	.	.	.
=78	=78	=78	=78	=78	=78	=78	=78	=78
1Im7	E-:13	_	.	.	183.227	newline	voice	1E- 1g 1b- 1dd
.	.	ah	.	.	.	.	.	.
.	.	.	.	.	.	.	.	.
.	.	.	Get	.	.	.	.	.
.	.	.	on	.	.	.	.	.
.	.	.	up	.	.	.	.	.
.	.	.	.	.	.	.	.	.
.	.	.	.	.	.	.	.	.
.	.	Taste	.	.	.	.	.	.
=79	=79	=79	=79	=79	=79	=79	=79	=79
1Im7	E-:13	_	.	.	185.474	.	voice	1E- 1g 1b- 1dd
.	.	ah	.	.	.	.	.	.
.	.	.	.	.	.	.	.	.
.	.	.	Get	.	.	.	.	.
.	.	.	on	.	.	.	.	.
.	.	.	up	.	.	.	.	.
.	.	.	.	.	.	.	.	.
.	.	.	.	.	.	.	.	.
.	.	Uh	.	.	.	.	.	.
.	.	pi-	.	.	.	.	.	.
.	.	-an-	.	.	.	.	.	.
=80	=80	=80	=80	=80	=80	=80	=80	=80
1Im7	E-:13	_	.	.	187.721	newline	voice	1E- 1g 1b- 1dd
.	.	-a	.	.	.	.	.	.
.	.	.	.	.	.	.	.	.
.	.	.	Get	.	.	.	.	.
.	.	.	on	.	.	.	.	.
.	.	.	up	.	.	.	.	.
.	.	.	.	.	.	.	.	.
.	.	.	.	.	.	.	.	.
.	.	Take	.	.	.	.	.	.
=81	=81	=81	=81	=81	=81	=81	=81	=81
1Im7	E-:13	_	.	.	189.918	.	voice	1E- 1g 1b- 1dd
.	.	me	.	.	.	.	.	.
.	.	.	.	.	.	.	.	.
.	.	.	Get	.	.	.	.	.
.	.	.	on	.	.	.	.	.
.	.	.	up	.	.	.	.	.
.	.	.	.	.	.	.	.	.
.	.	.	.	.	.	.	.	.
.	.	pi-	.	.	.	.	.	.
.	.	-an-	.	.	.	.	.	.
=82	=82	=82	=82	=82	=82	=82	=82	=82
1Im7	E-:13	_	.	.	192.115	newline	voice	1E- 1g 1b- 1dd
.	.	-a	.	.	.	.	.	.
.	.	.	.	.	.	.	.	.
.	.	.	Get	.	.	.	.	.
.	.	.	on	.	.	.	.	.
.	.	.	up	.	.	.	.	.
.	.	.	.	.	.	.	.	.
=83	=83	=83	=83	=83	=83	=83	=83	=83
1Im7	E-:13	.	.	.	194.332	newline	piano	1E- 1g 1b- 1dd
=84	=84	=84	=84	=84	=84	=84	=84	=84
1Im7	E-:13	.	.	.	196.619	.	piano	1E- 1g 1b- 1dd
=85	=85	=85	=85	=85	=85	=85	=85	=85
1Im7	E-:13	.	.	.	198.906	newline	piano	1E- 1g 1b- 1dd
=86	=86	=86	=86	=86	=86	=86	=86	=86
1Im7	E-:13	.	.	.	201.127	.	piano	1E- 1g 1b- 1dd
=87	=87	=87	=87	=87	=87	=87	=87	=87
1Im7	E-:13	.	.	.	203.348	newline	piano	1E- 1g 1b- 1dd
=88	=88	=88	=88	=88	=88	=88	=88	=88
1Im7	E-:13	.	.	.	205.594	.	piano	1E- 1g 1b- 1dd
=89	=89	=89	=89	=89	=89	=89	=89	=89
1Im7	E-:13	.	.	.	207.841	newline	piano	1E- 1g 1b- 1dd
=90	=90	=90	=90	=90	=90	=90	=90	=90
1Im7	E-:13	.	.	.	210.04	.	piano	1E- 1g 1b- 1dd
.	.	.	.	.	.	.	.	.
.	.	Get	.	.	.	.	.	.
.	.	up	.	.	.	.	.	.
=91	=91	=91	=91	=91	=91	=91	=91	=91
1Im7	E-:13	_	.	.	212.24	newline	voice	1E- 1g 1b- 1dd
.	.	ah	.	.	.	.	.	.
.	.	.	.	.	.	.	.	.
.	.	.	Get	.	.	.	.	.
.	.	.	on	.	.	.	.	.
.	.	.	up	.	.	.	.	.
.	.	.	.	.	.	.	.	.
.	.	Get	.	.	.	.	.	.
.	.	up	.	.	.	.	.	.
=92	=92	=92	=92	=92	=92	=92	=92	=92
1Im7	E-:13	_	.	.	214.49	.	voice	1E- 1g 1b- 1dd
.	.	ah	.	.	.	.	.	.
.	.	.	.	.	.	.	.	.
.	.	.	Get	.	.	.	.	.
.	.	.	on	.	.	.	.	.
.	.	.	up	.	.	.	.	.
.	.	.	.	.	.	.	.	.
.	.	Stay	.	.	.	.	.	.
.	.	on	.	.	.	.	.	.
.	.	the	.	.	.	.	.	.
=93	=93	=93	=93	=93	=93	=93	=93	=93
1Im7	E-:13	scene	.	A	216.741	newline	voice	1E- 1g 1b- 1dd
.	.	.	.	.	.	.	.	.
.	.	.	Get	.	.	.	.	.
.	.	.	on	.	.	.	.	.
.	.	.	up	.	.	.	.	.
.	.	.	.	.	.	.	.	.
.	.	Uh	.	.	.	.	.	.
.	.	like	.	.	.	.	.	.
.	.	a	.	.	.	.	.	.
.	.	sex	.	.	.	.	.	.
.	.	ma-	.	.	.	.	.	.
.	.	-chine	.	A	.	.	.	.
=94	=94	=94	=94	=94	=94	=94	=94	=94
1Im7	E-:13	_	.	.	218.942	.	voice	1E- 1g 1b- 1dd
.	.	uh	.	.	.	.	.	.
.	.	.	.	.	.	.	.	.
.	.	.	Get	.	.	.	.	.
.	.	.	on	.	.	.	.	.
.	.	.	up	.	.	.	.	.
.	.	.	.	.	.	.	.	.
.	.	You	.	.	.	.	.	.
.	.	got-	.	.	.	.	.	.
.	.	-ta	.	.	.	.	.	.
.	.	have	.	.	.	.	.	.
.	.	the	.	.	.	.	.	.
=95	=95	=95	=95	=95	=95	=95	=95	=95
1Im7	E-:13	fee-	.	.	221.142	newline	voice	1E- 1g 1b- 1dd
.	.	-lin'	.	.	.	.	.	.
.	.	.	.	.	.	.	.	.
.	.	.	Get	.	.	.	.	.
.	.	.	on	.	.	.	.	.
.	.	.	up	.	.	.	.	.
.	.	.	.	.	.	.	.	.
.	.	sure	.	.	.	.	.	.
.	.	as	.	.	.	.	.	.
.	.	you're	.	.	.	.	.	.
.	.	born	.	.	.	.	.	.
=96	=96	=96	=96	=96	=96	=96	=96	=96
1Im7	E-:13	_	.	.	223.355	.	voice	1E- 1g 1b- 1dd
.	.	.	.	.	.	.	.	.
.	.	.	Get	.	.	.	.	.
.	.	.	on	.	.	.	.	.
.	.	.	up	.	.	.	.	.
.	.	.	.	.	.	.	.	.
.	.	Get	.	.	.	.	.	.
.	.	it	.	.	.	.	.	.
=97	=97	=97	=97	=97	=97	=97	=97	=97
1Im7	E-:13	.	.	.	225.568	newline	voice	1E- 1g 1b- 1dd
.	.	t	.	.	.	.	.	.
.	.	.	.	.	.	.	.	.
.	.	to-	.	.	.	.	.	.
.	.	-ge-	.	.	.	.	.	.
.	.	-ther	.	.	.	.	.	.
.	.	.	.	.	.	.	.	.
.	.	.	.	.	.	.	.	.
.	.	.	.	.	.	.	.	.
.	.	Right	.	.	.	.	.	.
.	.	on	.	.	.	.	.	.
=98	=98	=98	=98	=98	=98	=98	=98	=98
1Im7	E-:13	_	.	.	227.791	.	voice	1E- 1g 1b- 1dd
.	.	right	.	.	.	.	.	.
.	.	on	.	.	.	.	.	.
.	.	_	.	.	.	.	.	.
.	.	.	.	.	.	.	.	.
.	.	.	.	.	.	.	.	.
.	.	.	.	.	.	.	.	.
.	.	Right	.	.	.	.	.	.
.	.	on	.	.	.	.	.	.
=99	=99	=99	=99	=99	=99	=99	=99	=99
1Im7	E-:13	_	.	.	230.014	newline	voice	1E- 1g 1b- 1dd
.	.	right	.	.	.	.	.	.
.	.	on	.	.	.	.	.	.
.	.	_	.	.	.	.	.	.
.	.	.	Right	.	.	.	.	.
.	.	.	on	.	.	.	.	.
.	.	.	_	.	.	.	.	.
.	.	.	n'	.	.	.	.	.
.	.	.	Right	.	.	.	.	.
.	.	.	on	.	.	.	.	.
.	.	.	_	.	.	.	.	.
.	.	.	.	.	.	.	.	.
.	.	Right	.	.	.	.	.	.
.	.	on	.	.	.	.	.	.
=100	=100	=100	=100	=100	=100	=100	=100	=100
1Im7	E-:13	_	.	.	232.276	.	voice	1E- 1g 1b- 1dd
.	.	n'	.	.	.	.	.	.
.	.	right	.	.	.	.	.	.
.	.	on	.	.	.	.	.	.
.	.	_	.	.	.	.	.	.
.	.	.	.	.	.	.	.	.
.	.	.	Right	.	.	.	.	.
.	.	.	on	.	.	.	.	.
.	.	.	_	.	.	.	.	.
.	.	.	n'	.	.	.	.	.
.	.	.	Right	.	.	.	.	.
.	.	.	on	.	.	.	.	.
.	.	.	_	.	.	.	.	.
.	.	Right	.	.	.	.	.	.
.	.	on	.	.	.	.	.	.
=101	=101	=101	=101	=101	=101	=101	=101	=101
1Im7	E-:13	_	.	.	234.537	newline	voice	1E- 1g 1b- 1dd
.	.	n'	.	.	.	.	.	.
.	.	right	.	.	.	.	.	.
.	.	on	.	.	.	.	.	.
.	.	_	.	.	.	.	.	.
.	.	.	Right	.	.	.	.	.
.	.	.	on	.	.	.	.	.
.	.	.	_	.	.	.	.	.
.	.	.	n'	.	.	.	.	.
.	.	.	Right	.	.	.	.	.
.	.	.	on	.	.	.	.	.
.	.	.	_	.	.	.	.	.
.	.	.	.	.	.	.	.	.
.	.	Get	.	.	.	.	.	.
.	.	up	.	.	.	.	.	.
=102	=102	=102	=102	=102	=102	=102	=102	=102
1Im7	E-:13	_	.	.	236.76	.	voice	1E- 1g 1b- 1dd
.	.	ah	.	.	.	.	.	.
.	.	.	.	.	.	.	.	.
.	.	.	Get	.	.	.	.	.
.	.	.	on	.	.	.	.	.
.	.	.	up	.	.	.	.	.
.	.	.	.	.	.	.	.	.
.	.	Get	.	.	.	.	.	.
.	.	up	.	.	.	.	.	.
=103	=103	=103	=103	=103	=103	=103	=103	=103
1Im7	E-:13	_	.	.	238.984	newline	voice	1E- 1g 1b- 1dd
.	.	ah	.	.	.	.	.	.
.	.	.	.	.	.	.	.	.
.	.	.	Get	.	.	.	.	.
.	.	.	on	.	.	.	.	.
.	.	.	up	.	.	.	.	.
.	.	.	.	.	.	.	.	.
.	.	and	.	.	.	.	.	.
.	.	then	.	.	.	.	.	.
.	.	_	.	.	.	.	.	.
.	.	.	.	.	.	.	.	.
=104	=104	=104	=104	=104	=104	=104	=104	=104
1Im7	E-:13	Shake	Shake	.	241.232	.	voice	1E- 1g 1b- 1dd
.	.	your	your	.	.	.	.	.
.	.	mo-	mo-	.	.	.	.	.
.	.	-ney	-ney	.	.	.	.	.
.	.	ma-	ma-	.	.	.	.	.
.	.	_	_	.	.	.	.	.
.	.	.	.	.	.	.	.	.
.	.	-ker	-ker	.	.	.	.	.
.	.	.	.	.	.	.	.	.
.	.	.	.	.	.	.	.	.
=105	=105	=105	=105	=105	=105	=105	=105	=105
1Im7	E-:13	Shake	Shake	.	243.48	newline	voice	1E- 1g 1b- 1dd
.	.	your	your	.	.	.	.	.
.	.	mo-	mo-	.	.	.	.	.
.	.	-ney	-ney	.	.	.	.	.
.	.	ma-	ma-	.	.	.	.	.
.	.	_	_	.	.	.	.	.
.	.	.	.	.	.	.	.	.
.	.	-ker	-ker	.	.	.	.	.
.	.	.	.	.	.	.	.	.
.	.	.	.	.	.	.	.	.
=106	=106	=106	=106	=106	=106	=106	=106	=106
1Im7	E-:13	Shake	Shake	.	245.691	.	voice	1E- 1g 1b- 1dd
.	.	your	your	.	.	.	.	.
.	.	mo-	mo-	.	.	.	.	.
.	.	-ney	-ney	.	.	.	.	.
.	.	ma-	ma-	.	.	.	.	.
.	.	_	_	.	.	.	.	.
.	.	.	.	.	.	.	.	.
.	.	-ker	-ker	.	.	.	.	.
.	.	.	.	.	.	.	.	.
.	.	.	.	.	.	.	.	.
=107	=107	=107	=107	=107	=107	=107	=107	=107
1Im7	E-:13	Shake	Shake	.	247.902	newline	voice	1E- 1g 1b- 1dd
.	.	your	your	.	.	.	.	.
.	.	mo-	mo-	.	.	.	.	.
.	.	-ney	-ney	.	.	.	.	.
.	.	ma-	ma-	.	.	.	.	.
.	.	_	_	.	.	.	.	.
.	.	.	.	.	.	.	.	.
.	.	-ker	-ker	.	.	.	.	.
.	.	.	.	.	.	.	.	.
.	.	.	.	.	.	.	.	.
=108	=108	=108	=108	=108	=108	=108	=108	=108
1Im7	E-:13	Shake	Shake	.	250.124	.	voice	1E- 1g 1b- 1dd
.	.	your	your	.	.	.	.	.
.	.	mo-	mo-	.	.	.	.	.
.	.	-ney	-ney	.	.	.	.	.
.	.	ma-	ma-	.	.	.	.	.
.	.	_	_	.	.	.	.	.
.	.	.	.	.	.	.	.	.
.	.	-ker	-ker	.	.	.	.	.
.	.	.	.	.	.	.	.	.
.	.	.	.	.	.	.	.	.
=109	=109	=109	=109	=109	=109	=109	=109	=109
1Im7	E-:13	Shake	Shake	.	252.346	newline	voice	1E- 1g 1b- 1dd
.	.	your	your	.	.	.	.	.
.	.	mo-	mo-	.	.	.	.	.
.	.	-ney	-ney	.	.	.	.	.
.	.	ma-	ma-	.	.	.	.	.
.	.	_	_	.	.	.	.	.
.	.	.	.	.	.	.	.	.
.	.	-ker	-ker	.	.	.	.	.
.	.	.	.	.	.	.	.	.
.	.	.	.	.	.	.	.	.
=110	=110	=110	=110	=110	=110	=110	=110	=110
1Im7	E-:13	Shake	Shake	.	254.573	.	voice	1E- 1g 1b- 1dd
.	.	your	your	.	.	.	.	.
.	.	mo-	mo-	.	.	.	.	.
.	.	-ney	-ney	.	.	.	.	.
.	.	ma-	ma-	.	.	.	.	.
.	.	_	_	.	.	.	.	.
.	.	.	.	.	.	.	.	.
.	.	-ker	-ker	.	.	.	.	.
.	.	.	.	.	.	.	.	.
.	.	.	.	.	.	.	.	.
.	.	Get	.	.	.	.	.	.
.	.	up	.	.	.	.	.	.
=111	=111	=111	=111	=111	=111	=111	=111	=111
1Im7	E-:13	_	.	.	256.8	newline	voice	1E- 1g 1b- 1dd
.	.	ah	.	.	.	.	.	.
.	.	.	.	.	.	.	.	.
.	.	.	Get	.	.	.	.	.
.	.	.	on	.	.	.	.	.
.	.	.	up	.	.	.	.	.
.	.	.	.	.	.	.	.	.
.	.	Get	.	.	.	.	.	.
.	.	up	.	.	.	.	.	.
=112	=112	=112	=112	=112	=112	=112	=112	=112
1Im7	E-:13	_	.	.	259.027	.	voice	1E- 1g 1b- 1dd
.	.	.	.	.	.	.	.	.
.	.	ah	.	.	.	.	.	.
.	.	.	.	.	.	.	.	.
.	.	.	Get	.	.	.	.	.
.	.	.	on	.	.	.	.	.
.	.	.	up	.	.	.	.	.
.	.	.	.	.	.	.	.	.
.	.	Get	.	.	.	.	.	.
.	.	up	.	.	.	.	.	.
=113	=113	=113	=113	=113	=113	=113	=113	=113
1Im7	E-:13	_	.	.	261.255	newline	voice	1E- 1g 1b- 1dd
.	.	ah	.	.	.	.	.	.
.	.	.	.	.	.	.	.	.
.	.	.	Get	.	.	.	.	.
.	.	.	on	.	.	.	.	.
.	.	.	up	.	.	.	.	.
.	.	.	.	.	.	.	.	.
.	.	Get	.	.	.	.	.	.
.	.	up	.	.	.	.	.	.
=114	=114	=114	=114	=114	=114	=114	=114	=114
1Im7	E-:13	_	.	.	263.478	.	voice	1E- 1g 1b- 1dd
.	.	.	.	.	.	.	.	.
.	.	.	Get	.	.	.	.	.
.	.	.	on	.	.	.	.	.
.	.	.	up	.	.	.	.	.
.	.	.	.	.	.	.	.	.
.	.	Get	.	.	.	.	.	.
.	.	up	.	.	.	.	.	.
=115	=115	=115	=115	=115	=115	=115	=115	=115
1Im7	E-:13	_	.	.	265.701	newline	voice	1E- 1g 1b- 1dd
.	.	ah	.	.	.	.	.	.
.	.	.	.	.	.	.	.	.
.	.	.	Get	.	.	.	.	.
.	.	.	on	.	.	.	.	.
.	.	.	up	.	.	.	.	.
.	.	.	.	.	.	.	.	.
=116	=116	=116	=116	=116	=116	=116	=116	=116
1Im7	E-:13	.	.	.	267.965	newline	piano	1E- 1g 1b- 1dd
=117	=117	=117	=117	=117	=117	=117	=117	=117
1Im7	E-:13	.	.	.	270.225	.	piano	1E- 1g 1b- 1dd
=118	=118	=118	=118	=118	=118	=118	=118	=118
1Im7	E-:13	.	.	.	272.486	newline	piano	1E- 1g 1b- 1dd
=119	=119	=119	=119	=119	=119	=119	=119	=119
1Im7	E-:13	.	.	.	274.717	.	piano	1E- 1g 1b- 1dd
=120	=120	=120	=120	=120	=120	=120	=120	=120
1Im7	E-:13	.	.	.	276.948	newline	piano	1E- 1g 1b- 1dd
=121	=121	=121	=121	=121	=121	=121	=121	=121
1Im7	E-:13	.	.	.	279.197	.	piano	1E- 1g 1b- 1dd
=122	=122	=122	=122	=122	=122	=122	=122	=122
1Im7	E-:13	.	.	.	281.447	newline	piano	1E- 1g 1b- 1dd
=123	=123	=123	=123	=123	=123	=123	=123	=123
1Im7	E-:13	.	.	.	283.695	.	piano	1E- 1g 1b- 1dd
=124	=124	=124	=124	=124	=124	=124	=124	=124
1Im7	E-:13	.	.	.	285.943	newline	piano	1E- 1g 1b- 1dd
=125	=125	=125	=125	=125	=125	=125	=125	=125
1Im7	E-:13	.	.	.	288.176	.	piano	1E- 1g 1b- 1dd
=126	=126	=126	=126	=126	=126	=126	=126	=126
1Im7	E-:13	.	.	.	290.41	newline	voice	1E- 1g 1b- 1dd
.	.	Huh	.	.	.	.	.	.
.	.	.	.	.	.	.	.	.
.	.	.	.	.	.	.	.	.
.	.	Get	.	.	.	.	.	.
.	.	up	.	.	.	.	.	.
=127	=127	=127	=127	=127	=127	=127	=127	=127
1Im7	E-:13	_	.	.	292.645	.	voice	1E- 1g 1b- 1dd
.	.	ah	.	.	.	.	.	.
.	.	.	.	.	.	.	.	.
.	.	.	Get	.	.	.	.	.
.	.	.	on	.	.	.	.	.
.	.	.	up	.	.	.	.	.
.	.	.	.	.	.	.	.	.
.	.	Get	.	.	.	.	.	.
.	.	up	.	.	.	.	.	.
=128	=128	=128	=128	=128	=128	=128	=128	=128
1Im7	E-:13	_	.	.	294.88	newline	voice	1E- 1g 1b- 1dd
.	.	ah	.	.	.	.	.	.
.	.	.	.	.	.	.	.	.
.	.	.	Get	.	.	.	.	.
.	.	.	on	.	.	.	.	.
.	.	.	up	.	.	.	.	.
.	.	.	.	.	.	.	.	.
.	.	.	.	.	.	.	.	.
.	.	Get	.	.	.	.	.	.
.	.	up	.	.	.	.	.	.
=129	=129	=129	=129	=129	=129	=129	=129	=129
1Im7	E-:13	_	.	.	297.115	.	voice	1E- 1g 1b- 1dd
.	.	ah	.	.	.	.	.	.
.	.	.	.	.	.	.	.	.
.	.	.	Get	.	.	.	.	.
.	.	.	on	.	.	.	.	.
.	.	.	up	.	.	.	.	.
.	.	.	.	.	.	.	.	.
=130	=130	=130	=130	=130	=130	=130	=130	=130
1Im7	E-:13	.	.	.	299.35	newline	voice	1E- 1g 1b- 1dd
=131	=131	=131	=131	=131	=131	=131	=131	=131
1Im7	E-:13	.	.	.	301.555	.	voice	1E- 1g 1b- 1dd
=132	=132	=132	=132	=132	=132	=132	=132	=132
1Im7	E-:13	.	.	.	303.76	newline	voice	1E- 1g 1b- 1dd
=133	=133	=133	=133	=133	=133	=133	=133	=133
1Im7	E-:13	.	.	.	306.033	.	voice	1E- 1g 1b- 1dd
=134	=134	=134	=134	=134	=134	=134	=134	=134
1Im7	E-:13	.	.	.	308.305	newline	voice	1E- 1g 1b- 1dd
=135	=135	=135	=135	=135	=135	=135	=135	=135
1Im7	E-:13	.	.	.	310.506	.	voice	1E- 1g 1b- 1dd
=136	=136	=136	=136	=136	=136	=136	=136	=136
*>Letter>A	*>Letter>A	*>Letter>A	*>Letter>A	*>Letter>A	*>Letter>A	*>Letter>A	*>Letter>A	*>Letter>A
*>Label>Outro	*>Label>Outro	*>Label>Outro	*>Label>Outro	*>Label>Outro	*>Label>Outro	*>Label>Outro	*>Label>Outro	*>Label>Outro
1IVm7	A-:13	.	.	.	312.707	newline	brass	1A- 1cc 1ee- 1gg
1r;	N	.	.	.	315.63	.	r	1r;
1r;	N	.	.	.	319.154	.	r	1r;
*-	*-	*-	*-	*-	*-	*-	*-	*-
!!!BillboardChartDate: 1970/09/12
!!!BillboardPeak: 15
!!!BillboardWeeksOnChart: 9
!!!COC: James Brown
!!!EMD: I had to remove one measure before the bridge to align with melodic score. Not sure what was problem. -Nat
!!!ENC: Nathaniel Condit-Schultz
!!!EST: Awating manual error checking and editing.
!!!OTL: Get Up (I Feel Like Being Like A) Sex Machine (Part 1)
!!!RDF**harte: Chris Harte's syntax, used by MIREX
!!!RDF**harmony: **recip + pitch class of root + harmonic quality
!!!RDF**leadinstrument: original McGill primary instrumentation annotation
!!!RDF**phrase: newline = linebreak in original McGill transcription
!!!RDF**timestamp: McGill audio timestamp in seconds
!!!RDT: 2017/01/12/
!!!SampleActualRank: 32
!!!SampleID#: 0857
!!!SampleTargetRank: 34
!!!MBID: 05e065f2-acb2-4d89-8d49-611c50059b0b
